assets/Musical note/Flat/musical_note_flat.svg

<svg width="32" height="32" viewBox="0 0 32 32" fill="none" xmlns="http://www.w3.org/2000/svg">
<path d="M29.41 2.86894C29.41 2.33894 28.95 1.93894 28.43 2.00894L11.46 4.20894C11.03 4.26894 10.7 4.63894 10.7 5.07894V18.6889C10.11 18.4889 9.47 18.3689 8.81 18.3689C5.6 18.3689 3 20.9789 3 24.1889C3 27.3989 5.6 29.9989 8.81 29.9989C12.02 29.9989 14.62 27.3989 14.62 24.1889C14.62 24.0689 14.61 23.9389 14.61 23.8189V9.91894C14.61 9.52894 14.9 9.20894 15.28 9.15894L24.63 7.94894C25.09 7.88894 25.5 8.24894 25.5 8.70894V15.2389C24.9 15.0289 24.26 14.9189 23.6 14.9189C20.39 14.9189 17.79 17.5189 17.79 20.7289C17.79 23.9389 20.39 26.5389 23.6 26.5389C26.81 26.5389 29.41 23.9389 29.41 20.7289C29.41 20.7189 29.41 20.7189 29.41 20.7089V2.86894Z" fill="#402A32"/>
</svg>

<svg xmlns="http://www.w3.org/2000/svg" width="32" height="32" fill="none"><path fill="#402A32" d="M29.41 2.869c0-.53-.46-.93-.98-.86l-16.97 2.2c-.43.06-.76.43-.76.87v13.61c-.59-.2-1.23-.32-1.89-.32-3.21 0-5.81 2.61-5.81 5.82 0 3.21 2.6 5.81 5.81 5.81 3.21 0 5.81-2.6 5.81-5.81 0-.12-.01-.25-.01-.37v-13.9c0-.39.29-.71.67-.76l9.35-1.21c.46-.06.87.3.87.76v6.53a5.808 5.808 0 0 0-7.71 5.49c0 3.21 2.6 5.81 5.81 5.81 3.21 0 5.81-2.6 5.81-5.81V2.869Z"/></svg>
